X: 37862
T: Sorry I Am For What I Have Done
R: jig
M: 6/8
K: Gmajor
|:ded B2A|GAG E2D|EAA A2B|AGE ADD|
ded B2A|GAG E2D|GAB dBA|1 AGF G2A:|2 AGF G3||
|:BEE GEE|BEE dcB|ADD FDD|ADD dcB|
AEE GEE|BEE FED|GAB dBA|1 AGF G3:|2 AGF G2A||

